X:1
T: The Car Driver
C:
R:Jig
Q:180
K:D
M:6/8
L:1/16
|:A4d2 B4d2|A2B2c2 d2e2f2|g4e2 f4d2|e2f2d2 c2d2B2|
A4d2 B4d2|A2B2c2 d2e2f2|g2a2a2 a2f2d2|e6 d6|
a4f2 b4f2|a2g2f2 f2e2d2|g4e2 f4d2|e2f2d2 c2d2B2|
A4d2 B4d2|A2B2c2 d2e2f2|g2a2a2 a2f2d2|e6 d6:|
